lib/brands/logos/ibm.svg

<svg xmlns="http://www.w3.org/2000/svg" fill="none" aria-hidden="true" viewBox="0 0 173 78"><g id="IBM"><path id="Vector" fill="#0043CE" d="M36.2819 67.1467V71.712H4.32495V67.1467H36.2819ZM86.2234 67.1465C83.0177 70.0936 78.8187 71.7238 74.4642 71.7117L40.8472 71.6666V67.1465H86.2234ZM133.74 67.1465L132.146 71.7118L130.566 67.1465H133.74ZM118.457 67.1467V71.712H95.6306V67.1467H118.457ZM168.675 67.1467V71.712H145.849V67.1467H168.675ZM91.3941 58.4311C91.0024 60.0326 90.3839 61.5698 89.5575 62.9964H40.8472V58.4311H91.3941ZM136.799 58.4313L135.197 62.9966H129.109L127.506 58.4313H136.799ZM118.457 58.4311V62.9964H95.6306V58.4311H118.457ZM168.675 58.4311V62.9964H145.849V58.4311H168.675ZM36.2819 58.4311V62.9964H4.32495V58.4311H36.2819ZM27.1513 49.7156V54.2809H13.4555V49.7156H27.1513ZM63.6736 49.7156V54.2809H49.9777V49.7156H63.6736ZM91.2846 49.7156C91.6892 51.2037 91.8945 52.7388 91.8953 54.2809H76.5394V49.7156H91.2846ZM139.859 49.7156L138.256 54.2809H126.049L124.446 49.7156H139.859ZM118.457 49.7156V54.2809H104.761V49.7156H118.457ZM159.544 49.7156V54.2809H145.849V49.7156H159.544ZM27.1513 41.0001V45.5654H13.4555V41.0001H27.1513ZM118.457 41.0001V45.5654H104.761V41.0001H118.457ZM159.544 41.0001V45.5654H145.849V41.0001H159.544ZM85.7443 40.9999C87.2647 42.2933 88.5527 43.8374 89.5524 45.5651H49.9776V40.9999H85.7443ZM142.919 40.9999L141.316 45.5652H122.989L121.387 40.9999H142.919ZM130.869 32.2847L132.153 35.9749L133.436 32.2847H159.544V36.8501H145.849V32.655L144.376 36.8501H119.93L118.457 32.6545V36.8501H104.761V32.2847H130.869ZM49.9777 32.2845L89.5527 32.2848C88.5529 34.0126 87.2649 35.5566 85.7444 36.8501H49.9777V32.2845ZM27.1513 32.2845V36.8498H13.4555V32.2845H27.1513ZM27.1513 23.569V28.1343H13.4555V23.569H27.1513ZM63.6736 23.569V28.1343H49.9777V23.569H63.6736ZM91.8953 23.5691C91.8945 25.1112 91.6892 26.6463 91.2846 28.1344H76.5394V23.5691H91.8953ZM127.839 23.569L129.426 28.1344H104.761V23.569H127.839ZM159.544 23.569V28.1344H134.879L136.467 23.569H159.544ZM36.2819 14.8535V19.4188H4.32495V14.8535H36.2819ZM89.5575 14.8535C90.3839 16.2801 91.0023 17.8173 91.3941 19.4187H40.8472V14.8535H89.5575ZM168.675 14.8534V19.4187H137.91L139.498 14.8534H168.675ZM124.808 14.8534L126.395 19.4187H95.6306V14.8534H124.808ZM36.2819 6.13804V10.7033H4.32495V6.13804H36.2819ZM74.4642 6.13802C78.8175 6.13216 83.0143 7.76147 86.2232 10.7033H40.8472V6.13802H74.4642ZM168.675 6.13819V10.7035H140.941L142.528 6.13819H168.675ZM121.777 6.13819L123.365 10.7035H95.6306V6.13819H121.777Z"/></g></svg>

<svg xmlns="http://www.w3.org/2000/svg" fill="none" aria-hidden="true" viewBox="0 0 173 78"><path fill="#0043CE" d="M36.282 67.147v4.565H4.325v-4.565h31.957Zm49.941 0a17.304 17.304 0 0 1-11.759 4.565l-33.617-.045v-4.52h45.376Zm47.517 0-1.594 4.565-1.58-4.566h3.174Zm-15.283 0v4.565H95.631v-4.565h22.826Zm50.218 0v4.565h-22.826v-4.565h22.826Zm-77.28-8.716a17.314 17.314 0 0 1-1.837 4.565h-48.71v-4.565h50.546Zm45.404 0-1.602 4.566h-6.088l-1.603-4.566h9.293Zm-18.342 0v4.565H95.631v-4.565h22.826Zm50.218 0v4.565h-22.826v-4.565h22.826Zm-132.393 0v4.565H4.325v-4.565h31.957Zm-9.13-8.715v4.565H13.454v-4.565H27.15Zm36.522 0v4.565H49.978v-4.565h13.696Zm27.61 0c.405 1.488.61 3.023.611 4.565H76.54v-4.565h14.746Zm48.575 0-1.603 4.565h-12.207l-1.603-4.565h15.413Zm-21.402 0v4.565h-13.696v-4.565h13.696Zm41.087 0v4.565h-13.695v-4.565h13.695ZM27.151 41v4.565H13.456V41H27.15Zm91.306 0v4.565h-13.696V41h13.696Zm41.087 0v4.565h-13.695V41h13.695Zm-73.8 0a17.502 17.502 0 0 1 3.808 4.565H49.978V41h35.766Zm57.175 0-1.603 4.565h-18.327L121.387 41h21.532Zm-12.05-8.715 1.284 3.69 1.283-3.69h26.108v4.565h-13.695v-4.195l-1.473 4.195H119.93l-1.473-4.196v4.196h-13.696v-4.565h26.108Zm-80.891 0h39.575a17.503 17.503 0 0 1-3.809 4.565H49.978v-4.566Zm-22.827 0v4.565H13.456v-4.566H27.15Zm0-8.716v4.565H13.456V23.57H27.15Zm36.523 0v4.565H49.978V23.57h13.696Zm28.221 0c0 1.542-.206 3.077-.61 4.565H76.539V23.57h15.356Zm35.944 0 1.587 4.565h-24.665V23.57h23.078Zm31.705 0v4.565h-24.665l1.588-4.565h23.077ZM36.282 14.854v4.565H4.325v-4.566h31.957Zm53.276 0a17.318 17.318 0 0 1 1.836 4.565H40.847v-4.566h48.71Zm79.117 0v4.565H137.91l1.588-4.566h29.177Zm-43.867 0 1.587 4.565H95.631v-4.566h29.177ZM36.282 6.137v4.565H4.325V6.138h31.957Zm38.182 0a17.366 17.366 0 0 1 11.76 4.565H40.846V6.138h33.617Zm94.211 0v4.566h-27.734l1.587-4.566h26.147Zm-46.898 0 1.588 4.566H95.631V6.138h26.146Z"/></svg>
